brandFactory_export/2.Regular/Oferta online_2Regular.svg

<?xml version="1.0" encoding="UTF-8"?>
<svg width="24px" height="24px" viewBox="0 0 24 24" version="1.1" xmlns="http://www.w3.org/2000/svg" xmlns:xlink="http://www.w3.org/1999/xlink">
    <title>2.Regular/Oferta online_2Regular</title>
    <g id="Symbols" stroke="none" stroke-width="1" fill="none" fill-rule="evenodd">
        <g id="2.Regular/Oferta-online_2Regular" fill="#5CB615" fill-rule="nonzero">
            <path d="M3.68235294,0.00336134454 C4.05210084,0.00336134454 4.35462185,0.305882353 4.35462185,0.675630252 C4.35462185,1.32436975 4.35462185,1.83529412 6.2907563,1.83529412 L7.61512605,1.83529412 C8.72436975,1.83529412 9.53445378,2.06722689 10.0957983,2.54117647 C10.6336134,2.99495798 10.9092437,3.64705882 10.9092437,4.47394958 L10.9101459,4.93215953 C12.7692423,5.0368073 14.2418601,5.6004207 15.2890756,6.60840336 C16.502521,7.77478992 17.1176471,9.51260504 17.1176471,11.7714286 L17.117084,12.9803613 L17.1205993,13.0302306 C17.1204784,13.042373 17.1200294,13.0544607 17.11926,13.0664836 L17.1182925,13.9482212 C17.2396265,14.096319 17.3362945,14.2717754 17.4235294,14.4302521 C17.4605042,14.497479 17.5142857,14.594958 17.5613445,14.6689076 C17.6420168,14.6252101 17.7428571,14.5647059 17.8134454,14.5243697 C18.1663866,14.312605 18.6033613,14.0470588 19.0235294,14.2890756 C19.4436975,14.5310924 19.4336134,15.0487395 19.4235294,15.4655462 C19.4235294,15.5462185 19.4201681,15.6605042 19.4235294,15.7512605 C19.5142857,15.7546218 19.6285714,15.7512605 19.7092437,15.7512605 C20.1226891,15.7411765 20.6403361,15.7310924 20.8857143,16.1512605 C21.1310924,16.5714286 20.8621849,17.0084034 20.6504202,17.3613445 C20.6067227,17.4319328 20.5462185,17.5327731 20.5058824,17.6134454 C20.5798319,17.6605042 20.6773109,17.7142857 20.7445378,17.7512605 C21.1109244,17.9529412 21.5680672,18.205042 21.5680672,18.6957983 C21.5680672,19.1865546 21.1109244,19.4386555 20.7445378,19.6403361 C20.6773109,19.6773109 20.5798319,19.7310924 20.5058824,19.7781513 C20.5495798,19.8588235 20.610084,19.9596639 20.6504202,20.0302521 C20.8621849,20.3831933 21.1277311,20.8201681 20.8857143,21.2403361 C20.6436975,21.6605042 20.1260504,21.6504202 19.7092437,21.6403361 C19.6285714,21.6403361 19.5142857,21.6369748 19.4235294,21.6403361 C19.4201681,21.7310924 19.4235294,21.8453782 19.4235294,21.9260504 C19.4336134,22.3394958 19.4436975,22.8571429 19.0235294,23.102521 C18.6033613,23.3478992 18.1663866,23.0789916 17.8134454,22.8672269 C17.7428571,22.8235294 17.6420168,22.7630252 17.5613445,22.7226891 C17.5142857,22.7966387 17.4605042,22.8941176 17.4235294,22.9613445 C17.2218487,23.3277311 16.9697479,23.7848739 16.4789916,23.7848739 C15.9882353,23.7848739 15.7361345,23.3277311 15.5344538,22.9613445 C15.497479,22.8941176 15.4436975,22.7966387 15.3966387,22.7226891 C15.3159664,22.7663866 15.2151261,22.8268908 15.1445378,22.8672269 C14.8200551,23.0619165 14.4245442,23.3020642 14.0363662,23.1514586 C13.012774,23.6858186 11.7437664,23.9529412 10.2605042,23.9529412 C8.08907563,23.9529412 6.39831933,23.3815126 5.23193277,22.2588235 C4.0184874,21.0890756 3.40336134,19.3512605 3.40336134,17.0957983 L3.40317002,13.0423544 C3.40299306,13.0343661 3.4029607,13.0263524 3.4030752,13.0183165 L3.40336134,11.7714286 C3.40336134,9.51596639 4.0184874,7.77815126 5.23193277,6.60840336 C6.27095528,5.60531247 7.72874973,5.04499956 9.56729891,4.93459287 L9.56735674,4.3678798 C9.55812039,3.90104613 9.42881153,3.17647059 7.6184874,3.17647059 L6.29411765,3.17647059 C5.13781513,3.17647059 4.38487395,3.00504202 3.85714286,2.62521008 C3.28907563,2.21176471 3.01008403,1.57647059 3.01008403,0.675630252 C3.01008403,0.305882353 3.31260504,0.00336134454 3.68235294,0.00336134454 Z M16.5527048,14.7115143 C16.5120494,14.7201889 16.4789916,14.7226891 16.4453782,14.7226891 L16.3915597,14.7179109 C16.1207641,14.8548779 15.9300713,15.5840829 15.6621849,15.6571429 C15.3563025,15.7378151 14.7411765,15.0756303 14.4756303,15.2336134 C14.210084,15.3915966 14.4722689,16.2554622 14.2504202,16.4739496 C14.0285714,16.692437 13.1647059,16.4268908 13.010084,16.6991597 C12.8554622,16.9714286 13.5176471,17.5831933 13.4336134,17.8857143 C13.3529412,18.1815126 12.4722689,18.3831933 12.4722689,18.702521 C12.4722689,19.0218487 13.3529412,19.2235294 13.4336134,19.5193277 C13.5142857,19.8252101 12.8521008,20.4403361 13.010084,20.7058824 C13.1680672,20.9714286 14.0319328,20.7092437 14.2504202,20.9310924 C14.3988176,21.0817729 14.3239218,21.5286269 14.3459072,21.8482661 C14.4334036,21.9030144 14.5082477,21.979334 14.5630252,22.0739496 C14.5846243,22.1108645 14.6022777,22.1489723 14.6161193,22.1877959 C14.9178473,22.149832 15.4006207,21.6760409 15.6621849,21.7478992 C15.9579832,21.8252101 16.1596639,22.7092437 16.4789916,22.7092437 C16.7983193,22.7092437 17,21.8285714 17.2957983,21.7478992 C17.6016807,21.6672269 18.2168067,22.3294118 18.4823529,22.1714286 C18.7478992,22.0134454 18.4857143,21.1495798 18.707563,20.9310924 C18.9294118,20.712605 19.7932773,20.9747899 19.9478992,20.7058824 C20.102521,20.4369748 19.4403361,19.8252101 19.5243697,19.5193277 C19.6016807,19.2235294 20.4857143,19.0218487 20.4857143,18.702521 C20.4857143,18.3831933 19.6016807,18.1815126 19.5243697,17.8857143 C19.4436975,17.5798319 20.1058824,16.9647059 19.9478992,16.6991597 C19.789916,16.4336134 18.9260504,16.6957983 18.707563,16.4739496 C18.4890756,16.2521008 18.7546218,15.3882353 18.4823529,15.2336134 C18.210084,15.0789916 17.6016807,15.7411765 17.2957983,15.6571429 C17.0234108,15.5828553 16.8308327,14.8301878 16.5527048,14.7115143 Z M4.74714418,13.7905092 L4.74789916,17.0957983 C4.74789916,18.9747899 5.22521008,20.3831933 6.16302521,21.2907563 C7.07058824,22.1647059 8.4487395,22.6084034 10.2605042,22.6084034 C11.587414,22.6084034 12.6890564,22.3677068 13.5358646,21.8951837 L13.5344538,21.9260504 C13.5344538,21.8453782 13.5378151,21.7310924 13.5344538,21.6403361 C13.4436975,21.6369748 13.3294118,21.6403361 13.2487395,21.6403361 C12.8319328,21.6504202 12.3176471,21.6605042 12.0722689,21.2403361 C11.8268908,20.8201681 12.0957983,20.3831933 12.307563,20.0302521 C12.3512605,19.9596639 12.4117647,19.8588235 12.4521008,19.7781513 C12.3781513,19.7310924 12.2806723,19.6773109 12.2134454,19.6403361 C11.8470588,19.4386555 11.389916,19.1865546 11.389916,18.6957983 C11.389916,18.205042 11.8470588,17.9529412 12.2134454,17.7512605 C12.2806723,17.7142857 12.3781513,17.6605042 12.4521008,17.6134454 C12.4084034,17.5327731 12.3478992,17.4319328 12.307563,17.3613445 C12.0957983,17.0084034 11.8302521,16.5714286 12.0722689,16.1512605 C12.3142857,15.7310924 12.8319328,15.7411765 13.2487395,15.7512605 C13.3294118,15.7512605 13.4436975,15.7546218 13.5344538,15.7512605 C13.5378151,15.6605042 13.5344538,15.5462185 13.5344538,15.4655462 C13.5243697,15.0521008 13.5142857,14.5344538 13.9344538,14.2890756 C14.3546218,14.0436975 14.7915966,14.312605 15.1445378,14.5243697 C15.2151261,14.5680672 15.3159664,14.6285714 15.3966387,14.6689076 C15.4436975,14.594958 15.497479,14.497479 15.5344538,14.4302521 C15.6052686,14.3016051 15.6822997,14.161769 15.7736954,14.0344619 L15.773084,13.7903613 L15.6489061,13.8068452 C13.8594752,14.0205797 12.0612245,14.1238896 10.2605042,14.1210084 C8.41710167,14.1239578 6.57628715,14.0130345 4.74714418,13.7905092 Z M17.5983193,19.1058824 C18.1394958,19.1058824 18.4756303,19.4420168 18.4756303,19.9831933 C18.4756303,20.5243697 18.1361345,20.8605042 17.5983193,20.8605042 C17.0571429,20.8605042 16.7210084,20.5243697 16.7210084,19.9831933 C16.7210084,19.4420168 17.0571429,19.1058824 17.5983193,19.1058824 Z M18.0756303,16.6588235 C18.2201681,16.7731092 18.2470588,16.9848739 18.1327731,17.1294118 L15.3495798,20.6857143 C15.2890756,20.7697479 15.1915966,20.8168067 15.087395,20.8168067 C14.902521,20.8168067 14.7512605,20.6655462 14.7512605,20.4806723 C14.7512605,20.4067227 14.7747899,20.3327731 14.8218487,20.2722689 L17.605042,16.7159664 C17.7193277,16.5714286 17.9310924,16.5445378 18.0756303,16.6588235 Z M17.5983193,19.7815126 C17.4302521,19.7815126 17.3932773,19.8151261 17.3932773,19.9865546 C17.3932773,20.1579832 17.4268908,20.1915966 17.5983193,20.1915966 C17.7697479,20.1915966 17.8033613,20.1579832 17.8033613,19.9865546 C17.8033613,19.8151261 17.7663866,19.7815126 17.5983193,19.7815126 Z M15.3327731,16.5109244 C15.8739496,16.5109244 16.210084,16.8470588 16.210084,17.3882353 C16.210084,17.9294118 15.8739496,18.2655462 15.3327731,18.2655462 C14.7915966,18.2655462 14.4554622,17.9294118 14.4554622,17.3882353 C14.4554622,16.8470588 14.7915966,16.5109244 15.3327731,16.5109244 Z M15.3327731,17.1865546 C15.1647059,17.1865546 15.1277311,17.2201681 15.1277311,17.3915966 C15.1277311,17.5630252 15.1613445,17.5966387 15.3327731,17.5966387 C15.5042017,17.5966387 15.5378151,17.5630252 15.5378151,17.3915966 C15.5378151,17.2201681 15.5008403,17.1865546 15.3327731,17.1865546 Z M10.2605042,6.25882353 C8.4487395,6.25882353 7.07058824,6.70252101 6.16302521,7.57647059 C5.22521008,8.48403361 4.74789916,9.89243697 4.74789916,11.7714286 L4.74708403,12.4333613 L5.036328,12.4707744 C6.77101698,12.6760418 8.51452581,12.7793517 10.2605042,12.7764706 C12.1024745,12.7795101 13.9444448,12.6671097 15.7739878,12.4367839 L15.7731092,11.7714286 C15.7731092,9.89243697 15.2957983,8.48403361 14.3579832,7.57647059 C13.4504202,6.70252101 12.0722689,6.25882353 10.2605042,6.25882353 Z M10.2605042,7.54285714 C10.6302521,7.54285714 10.9327731,7.84537815 10.9327731,8.21512605 L10.9327731,11.1966387 C10.9327731,11.5663866 10.6302521,11.8689076 10.2605042,11.8689076 C9.8907563,11.8689076 9.58823529,11.5663866 9.58823529,11.1966387 L9.58823529,8.21512605 C9.58823529,7.84537815 9.8907563,7.54285714 10.2605042,7.54285714 Z" id="Oferta-online_2Regular"></path>
        </g>
    </g>
</svg>

<svg width="24" height="24" viewBox="0 0 24 24" xmlns="http://www.w3.org/2000/svg"><path d="M3.682.003c.37 0 .673.303.673.673 0 .648 0 1.16 1.936 1.16h1.324c1.11 0 1.92.231 2.48.705.539.454.814 1.106.814 1.933l.001.458c1.86.105 3.332.668 4.38 1.676 1.213 1.167 1.828 2.905 1.828 5.163v1.21l.003.05-.002.035v.882c.12.148.217.324.305.482.037.067.09.165.137.239.081-.044.182-.104.252-.145.353-.211.79-.477 1.21-.235.42.242.41.76.4 1.177 0 .08-.003.195 0 .285.091.004.206 0 .286 0 .414-.01.931-.02 1.177.4.245.42-.024.857-.236 1.21a3.55 3.55 0 00-.144.252c.074.048.171.101.239.138.366.202.823.454.823.945 0 .49-.457.743-.823.944a4.71 4.71 0 00-.24.138l.145.252c.212.353.478.79.236 1.21-.242.42-.76.41-1.177.4-.08 0-.195-.003-.285 0-.004.091 0 .205 0 .286.01.413.02.931-.4 1.177-.42.245-.858-.024-1.21-.236a3.55 3.55 0 00-.253-.144 4.71 4.71 0 00-.137.238c-.202.367-.454.824-.945.824-.49 0-.743-.457-.945-.824a4.71 4.71 0 00-.137-.238c-.081.043-.182.104-.252.144-.325.195-.72.435-1.109.284-1.023.535-2.292.802-3.775.802-2.172 0-3.863-.571-5.03-1.694-1.213-1.17-1.828-2.908-1.828-5.163v-4.054a.66.66 0 010-.024v-1.247c0-2.255.615-3.993 1.829-5.163C6.27 5.605 7.729 5.045 9.567 4.935v-.567C9.558 3.9 9.43 3.176 7.618 3.176H6.294c-1.156 0-1.91-.171-2.437-.55-.568-.414-.847-1.05-.847-1.95 0-.37.303-.673.672-.673zm12.87 14.709a.491.491 0 01-.107.01l-.053-.004c-.271.137-.462.866-.73.94-.306.08-.92-.582-1.186-.424-.266.158-.004 1.021-.226 1.24-.221.218-1.085-.047-1.24.225-.155.272.508.884.424 1.187-.081.296-.962.497-.962.817 0 .319.88.52.962.816.08.306-.582.921-.424 1.187.158.265 1.022.003 1.24.225.149.15.074.598.096.917a.648.648 0 01.27.34c.302-.038.785-.512 1.046-.44.296.077.498.961.817.961.32 0 .521-.88.817-.961.306-.08.92.581 1.186.423.266-.158.004-1.021.226-1.24.221-.218 1.085.044 1.24-.225.155-.269-.508-.88-.424-1.187.078-.295.962-.497.962-.816 0-.32-.884-.521-.962-.817-.08-.306.582-.921.424-1.187-.158-.265-1.022-.003-1.24-.225-.219-.222.047-1.086-.226-1.24-.272-.155-.88.507-1.186.423-.273-.074-.465-.827-.743-.945zM4.748 13.79v3.305c0 1.879.478 3.287 1.416 4.195.908.874 2.286 1.317 4.098 1.317 1.326 0 2.428-.24 3.275-.713l-.002.031c0-.08.004-.195 0-.286-.09-.003-.205 0-.285 0-.417.01-.931.02-1.177-.4-.245-.42.024-.857.236-1.21a3.55 3.55 0 00.144-.252 4.71 4.71 0 00-.239-.138c-.366-.201-.823-.453-.823-.944 0-.491.457-.743.823-.945a4.71 4.71 0 00.24-.138l-.145-.252c-.212-.353-.478-.79-.236-1.21.242-.42.76-.41 1.177-.4.08 0 .195.004.285 0 .004-.09 0-.205 0-.285-.01-.414-.02-.932.4-1.177.42-.245.858.024 1.21.235.071.044.172.105.253.145.047-.074.1-.172.137-.239.071-.128.148-.268.24-.396v-.244l-.125.017c-1.79.214-3.588.317-5.388.314a45.052 45.052 0 01-5.514-.33zm12.851 5.315c.541 0 .878.336.878.877 0 .541-.34.878-.878.878-.54 0-.877-.337-.877-.878 0-.541.336-.877.877-.877zm.478-2.447a.336.336 0 01.057.47l-2.783 3.557a.32.32 0 01-.263.13.337.337 0 01-.265-.544l2.783-3.556a.336.336 0 01.47-.057zm-.478 3.123c-.168 0-.205.033-.205.205 0 .171.034.205.205.205.172 0 .205-.034.205-.205 0-.172-.037-.205-.205-.205zm-2.265-3.271c.54 0 .877.336.877.877 0 .541-.336.878-.877.878-.541 0-.878-.337-.878-.878 0-.54.337-.877.878-.877zm0 .676c-.168 0-.205.033-.205.205 0 .171.033.205.205.205.171 0 .205-.034.205-.205 0-.172-.037-.205-.205-.205zM10.26 6.259c-1.812 0-3.19.444-4.098 1.317-.938.908-1.415 2.316-1.415 4.195v.662l.288.038a43.83 43.83 0 005.225.305c1.841.004 3.683-.109 5.513-.34v-.665c0-1.879-.478-3.287-1.416-4.195-.908-.873-2.286-1.317-4.097-1.317zm0 1.284c.37 0 .672.302.672.672v2.982c0 .37-.303.672-.672.672a.674.674 0 01-.673-.672V8.215c0-.37.303-.672.673-.672z" fill="#5CB615" fill-rule="nonzero"/></svg>
